X:90
T:New Highland Laddie,The. JJo.090
S:J.Jones MS,1801,N.Shrops.
A:N Shropshire
Z:Neil Brookes 2006
M:4/4
L:1/8
Q:1/4=120
K:F
c|c>dcf fedc|d>efd dcBA|Bcde f>ga>g|fdcA AG zc|!
c>dcf fedc|d>efd dcBA|Bcde f2db|agfe f>g f2||!
c3f afef|f>gab afef|f2c2 d>efg|a>baf eg zg|!
a>baf g>age|fa g/f/e/d/ c2zc|Acde g>efd|cegb gf zc|!
Acde fefd|cAGe f2z2|]

